SVG_Azure_All/O365 - OneDrive.svg

<?xml version="1.0" encoding="UTF-8" standalone="no"?>
<!-- Generated by Microsoft Visio, SVG Export O365 - OneDrive.svg Page-1 -->

<svg
   xmlns:dc="http://purl.org/dc/elements/1.1/"
   xmlns:cc="http://creativecommons.org/ns#"
   xmlns:rdf="http://www.w3.org/1999/02/22-rdf-syntax-ns#"
   xmlns:svg="http://www.w3.org/2000/svg"
   xmlns="http://www.w3.org/2000/svg"
   xmlns:sodipodi="http://sodipodi.sourceforge.net/DTD/sodipodi-0.dtd"
   xmlns:inkscape="http://www.inkscape.org/namespaces/inkscape"
   width="0.83048338in"
   height="0.51516241in"
   viewBox="0 0 59.794719 37.091668"
   xml:space="preserve"
   class="st5"
   version="1.1"
   id="svg34"
   sodipodi:docname="O365 - OneDrive.svg"
   style="font-size:12px;overflow:visible;color-interpolation-filters:sRGB;fill:none;fill-rule:evenodd;stroke-linecap:square;stroke-miterlimit:3"
   inkscape:version="0.92.5 (2060ec1f9f, 2020-04-08)"><metadata
   id="metadata40"><rdf:RDF><cc:Work
       rdf:about=""><dc:format>image/svg+xml</dc:format><dc:type
         rdf:resource="http://purl.org/dc/dcmitype/StillImage" /></cc:Work></rdf:RDF></metadata><defs
   id="defs38" /><sodipodi:namedview
   pagecolor="#ffffff"
   bordercolor="#666666"
   borderopacity="1"
   objecttolerance="10"
   gridtolerance="10"
   guidetolerance="10"
   inkscape:pageopacity="0"
   inkscape:pageshadow="2"
   inkscape:window-width="640"
   inkscape:window-height="480"
   id="namedview36"
   showgrid="false"
   inkscape:zoom="1.9711925"
   inkscape:cx="39.862728"
   inkscape:cy="14.503571"
   inkscape:window-x="0"
   inkscape:window-y="0"
   inkscape:window-maximized="0"
   inkscape:current-layer="svg34" />
	<style
   type="text/css"
   id="style2">
	<![CDATA[
		.st1 {fill:#0364b8;stroke:none;stroke-linecap:butt;stroke-width:18.6798}
		.st2 {fill:#0078d4;stroke:none;stroke-linecap:butt;stroke-width:18.6798}
		.st3 {fill:#1490df;stroke:none;stroke-linecap:butt;stroke-width:18.6798}
		.st4 {fill:#28a8ea;stroke:none;stroke-linecap:butt;stroke-width:18.6798}
		.st5 {fill:none;fill-rule:evenodd;font-size:12px;overflow:visible;stroke-linecap:square;stroke-miterlimit:3}
	]]>
	</style>

	<g
   id="g32"
   transform="translate(-18.682052,-18.682646)">
		<title
   id="title4">Page-1</title>
		<g
   id="group2593-1"
   transform="translate(20.3325,-34.0157)">
			<title
   id="title6">O365 - OneDrive</title>
			<g
   id="group2594-2">
				<title
   id="title8">STYLE_COLOR</title>
				<g
   id="shape2595-3"
   transform="translate(13.1059,-19.5159)">
					<title
   id="title10">path4</title>
					<path
   d="m 8.04,82.51 v 0 l 12.56,7.28 7.48,-3.05 v 0.01 a 12.1032,11.7207 0 0 1 4.81,-0.97 c 0.28,0 0.55,0.02 0.82,0.03 A 18.6884,18.0978 -180 0 0 0,80.36 c 0.06,0 0.13,-0.01 0.19,-0.01 a 14.8762,14.4061 0 0 1 7.85,2.16 z"
   class="st1"
   id="path12"
   inkscape:connector-curvature="0"
   style="fill:#0364b8;stroke:none;stroke-width:18.67980003;stroke-linecap:butt" />
				</g>
				<g
   id="shape2596-5"
   transform="translate(0,-6.20208)">
					<title
   id="title15">path6</title>
					<path
   d="m 21.15,69.2 v 0 A 14.8762,14.4061 -180 0 0 13.3,67.04 c -0.07,0 -0.13,0.01 -0.19,0.01 A 14.9436,14.4713 -180 0 0 1.03,89.79 l 11.07,-4.51 4.92,-2 10.96,-4.47 5.72,-2.33 z"
   class="st2"
   id="path17"
   inkscape:connector-curvature="0"
   style="fill:#0078d4;stroke:none;stroke-width:18.67980003;stroke-linecap:butt" />
				</g>
				<g
   id="shape2597-7"
   transform="translate(33.7039,-6.18094)">
					<title
   id="title20">path8</title>
					<path
   d="M 13.12,72.48 C 12.84,72.46 12.57,72.45 12.3,72.45 a 12.1032,11.7207 -180 0 0 -4.82,0.96 v 0 L 0,76.46 l 2.17,1.26 7.11,4.12 3.1,1.8 10.61,6.15 A 12.1469,11.7631 -180 0 0 13.12,72.48 Z"
   class="st3"
   id="path22"
   inkscape:connector-curvature="0"
   style="fill:#1490df;stroke:none;stroke-width:18.67980003;stroke-linecap:butt" />
				</g>
				<g
   id="shape2598-9"
   transform="translate(1.03328)">
					<title
   id="title25">path10</title>
					<path
   d="m 45.05,77.46 -3.1,-1.8 -7.11,-4.12 -2.17,-1.26 -5.72,2.33 -10.96,4.46 -4.92,2.01 L 0,83.59 a 14.9288,14.4571 -180 0 0 12.26,6.2 h 32.71 a 12.1435,11.7598 -180 0 0 10.69,-6.18 z"
   class="st4"
   id="path27"
   inkscape:connector-curvature="0"
   style="fill:#28a8ea;stroke:none;stroke-width:18.67980003;stroke-linecap:butt" />
				</g>
			</g>
		</g>
	</g>
</svg>

<?xml version="1.0" encoding="UTF-8" standalone="no"?>
<!DOCTYPE svg PUBLIC "-//W3C//DTD SVG 1.1//EN" "http://www.w3.org/Graphics/SVG/1.1/DTD/svg11.dtd">
<!-- Generated by Microsoft Visio, SVG Export O365 - OneDrive.svg Page-1 -->
<svg xmlns="http://www.w3.org/2000/svg" xmlns:xlink="http://www.w3.org/1999/xlink" xmlns:ev="http://www.w3.org/2001/xml-events"
		width="1.34942in" height="1.24713in" viewBox="0 0 97.1581 89.7933" xml:space="preserve" color-interpolation-filters="sRGB"
		class="st5">
	<style type="text/css">
	<![CDATA[
		.st1 {fill:#0364b8;stroke:none;stroke-linecap:butt;stroke-width:18.6798}
		.st2 {fill:#0078d4;stroke:none;stroke-linecap:butt;stroke-width:18.6798}
		.st3 {fill:#1490df;stroke:none;stroke-linecap:butt;stroke-width:18.6798}
		.st4 {fill:#28a8ea;stroke:none;stroke-linecap:butt;stroke-width:18.6798}
		.st5 {fill:none;fill-rule:evenodd;font-size:12px;overflow:visible;stroke-linecap:square;stroke-miterlimit:3}
	]]>
	</style>

	<g>
		<title>Page-1</title>
		<g id="group2567-1" transform="translate(20.3325,-34.0157)">
			<title>O365 - OneDrive</title>
			<g id="group2568-2">
				<title>STYLE_COLOR</title>
				<g id="shape2569-3" transform="translate(13.1059,-19.5159)">
					<title>path4</title>
					<path d="M8.04 82.51 L8.04 82.51 L20.6 89.79 L28.08 86.74 L28.08 86.75 A12.1032 11.7207 0 0 1 32.89 85.78 C33.17
								 85.78 33.44 85.8 33.71 85.81 A18.6884 18.0978 -180 0 0 -0 80.36 C0.06 80.36 0.13 80.35 0.19 80.35
								 A14.8762 14.4061 0 0 1 8.04 82.51 Z" class="st1"/>
				</g>
				<g id="shape2570-5" transform="translate(-2.81775E-13,-6.20208)">
					<title>path6</title>
					<path d="M21.15 69.2 L21.15 69.2 A14.8762 14.4061 -180 0 0 13.3 67.04 C13.23 67.04 13.17 67.05 13.11 67.05 A14.9436
								 14.4713 -180 0 0 1.03 89.79 L12.1 85.28 L17.02 83.28 L27.98 78.81 L33.7 76.48 L21.15 69.2 Z"
							class="st2"/>
				</g>
				<g id="shape2571-7" transform="translate(33.7039,-6.18094)">
					<title>path8</title>
					<path d="M13.12 72.48 C12.84 72.46 12.57 72.45 12.3 72.45 A12.1032 11.7207 -180 0 0 7.48 73.41 L7.48 73.41 L0
								 76.46 L2.17 77.72 L9.28 81.84 L12.38 83.64 L22.99 89.79 A12.1469 11.7631 -180 0 0 13.12 72.48 L13.12
								 72.48 Z" class="st3"/>
				</g>
				<g id="shape2572-9" transform="translate(1.03328,1.42109E-14)">
					<title>path10</title>
					<path d="M45.05 77.46 L41.95 75.66 L34.84 71.54 L32.67 70.28 L26.95 72.61 L15.99 77.07 L11.07 79.08 L0 83.59
								 A14.9288 14.4571 -180 0 0 12.26 89.79 L44.97 89.79 A12.1435 11.7598 -180 0 0 55.66 83.61 L45.05
								 77.46 Z" class="st4"/>
				</g>
			</g>
		</g>
	</g>
</svg>
